X: 22
T:Largo's Fairy Dance
M:4/4
L:1/8
R:Reel
K:D
de|:"D"f2 fd f2 fd|"D"f2 fd "A"cAec|"D"f2 fd "G"gfed|"A"cABc "D"defg:|
|:"D"a2 af "G"b2 ba|"G"g2 ge "A"a2 ag|"D"f2 fd "G"gfed|1 "A"cABc "D"defg
:||2 "A"cABc"D"d2||
